X:5
T:Ocean Breeze - Minimalist Ambient
C:Alex
M:4/4
L:1/4
K:Dm

|: D2 | A,2 | D2 | F2 |
   A2 | D2 | A,2 | D2 :|

|: F2 | A2 | D2 | C2 |
   A,2 | F2 | D2 | A,2 :|

|: D4 | A,4 | D4 | F4 |
   A4 | D4 | A,4 | D4 :|

